Origami/64x64/apps/giggle.svg

<svg width="64" height="64" version="1.1" viewBox="0 0 64 64" xmlns="http://www.w3.org/2000/svg" xmlns:xlink="http://www.w3.org/1999/xlink">
 <defs>
  <linearGradient id="linearGradient4532" x1="17" x2="10" y1="5" y2="18" gradientTransform="matrix(1.4999957,0,0,1.4996048,-1.4999872,-1.9889343)" gradientUnits="userSpaceOnUse">
   <stop style="stop-color:#000000" offset="0"/>
   <stop style="stop-color:#000000;stop-opacity:0" offset="1"/>
  </linearGradient>
 </defs>
 <g transform="matrix(-1,0,0,1,66,0)">
  <path d="m57.95384 39.800066a13.999957 13.999957 0 0 1 -13.953957 13.199959 13.999957 13.999957 0 0 1 -13.953157 -12.91796 13.999957 13.999957 0 0 0 -0.04688 0.917997 13.999957 13.999957 0 0 0 13.999957 13.999957 13.999957 13.999957 0 0 0 13.999956 -13.999957 13.999957 13.999957 0 0 0 -0.046879 -1.081996z" style="opacity:.2"/>
  <path d="M 33.953914,45.800047 A 13.999957,13.999957 0 0 1 19.999957,59.000007 13.999957,13.999957 0 0 1 6.0468005,46.000047 13.999957,13.999957 0 0 0 6.0000006,47.000044 13.999957,13.999957 0 0 0 19.999957,61 13.999957,13.999957 0 0 0 33.999914,47.000044 13.999957,13.999957 0 0 0 33.953034,45.918047 Z" style="opacity:.2"/>
  <path d="m42.999886 39.000053s-5.527983-8.944773-5.999981-13.999957c-0.571479-6.119781 3.999987-17.999944 3.999987-17.999944" style="fill:none;stroke-linecap:round;stroke-linejoin:round;stroke-width:5.9999814;stroke:#1f711f"/>
  <path d="m43.859883 6.7999032a3.0003907 3.0003907 0 0 1 -1.265616 1.5585952s-3.01639 1.8915946-6.45698 4.5273856c-3.440589 2.635592-7.267377 6.188181-8.527373 8.409974-1.350456 2.380993-2.484993 7.760576-3.007791 12.296962-0.523998 4.599986-0.601998 8.399974-0.601998 8.399974a3.0005907 3.0005907 0 0 1 -5.941382 0.519599c-0.0182 0.399998-0.0586 1.199996-0.0586 1.199996a3.0006111 3.0006111 0 1 0 5.999982 0.122s0.07884-3.748789 0.601558-8.285175 1.657335-9.915769 3.007791-12.296762c1.259996-2.221793 5.086784-5.774582 8.527373-8.410174 3.44059-2.635791 6.45698-4.527386 6.45698-4.527386a3.0003907 3.0003907 0 0 0 1.265616 -3.5623886z" style="fill-rule:evenodd;opacity:.2"/>
  <path d="m20.999954 43.00004s0.322959-15.516552 3.999988-21.999932c3.495989-6.16438 15.99995-13.999956 15.99995-13.999956" style="fill:none;stroke-linecap:round;stroke-linejoin:round;stroke-width:6;stroke:#248424"/>
  <path d="m41.025391 3.9492188-0.001953 0.0507812a3.0003907 3.0003907 0 0 0 -1.617188 0.4804688s-3.23258 2.024465-6.917969 4.8476562c-3.685388 2.823191-7.861663 6.272256-10.097656 10.214844-2.326593 4.102387-3.192001 9.723821-3.75 14.566406-0.557398 4.799985-0.638672 8.800781-0.638672 8.800781a3.0005907 3.0005907 0 0 0 0.02539 0.408203c0.02115-0.76975 0.119283-3.954963 0.613281-8.208984 0.557999-4.842585 1.423407-10.464019 3.75-14.566406 2.235993-3.942588 6.412268-7.391653 10.097656-10.214844 3.68539-2.8231916 6.91797-4.8476562 6.91797-4.8476562a3.0003907 3.0003907 0 0 1 1.617188 -0.4804688l2e-3 -0.050781a3.0003907 3.0003907 0 0 1 2.964843 2.4960937 3.0003907 3.0003907 0 0 0 -2.964843 -3.4960937z" style="fill-rule:evenodd;fill:#ffffff;opacity:.1"/>
  <circle cx="44" cy="40" r="14" style="fill:#c72828"/>
  <path d="M 44,26 A 13.999957,13.999957 0 0 0 30,40 13.999957,13.999957 0 0 0 30.019531,40.451172 13.999957,13.999957 0 0 1 44,27 13.999957,13.999957 0 0 1 57.974609,40.496094 13.999957,13.999957 0 0 0 58,40 13.999957,13.999957 0 0 0 44,26 Z" style="fill:#ffffff;opacity:.2"/>
  <circle cx="20" cy="46" r="14" style="fill:#ff3737"/>
  <path d="M 20,32 A 13.999957,13.999957 0 0 0 6,46 13.999957,13.999957 0 0 0 6.0195312,46.451172 13.999957,13.999957 0 0 1 20,33 13.999957,13.999957 0 0 1 33.974609,46.496094 13.999957,13.999957 0 0 0 34,46 13.999957,13.999957 0 0 0 20,32 Z" style="fill:#ffffff;opacity:.2"/>
 </g>
 <path d="m23.803143 5.0094849-0.479789 0.1814455s-3.533782 1.3472323-7.608042 3.7138906c-4.07426 2.366658-8.7264842 5.741007-10.983092 9.968018-2.2674325 4.247286-1.9375854 9.604056-1.0966547 13.897804 0.8409312 4.293748 2.231125 7.565587 2.231125 7.565587l0.2812542 0.66377 0.6145057-0.399641s3.5232715-2.291702 7.5867705-5.599546c4.063497-3.307843 8.682508-7.613459 10.921641-11.807735 4.499918-8.429105-1.205376-17.751798-1.205376-17.751798z" style="fill-rule:evenodd;opacity:.2"/>
 <path d="m23.803143 4.0094849-0.479789 0.1814455s-3.533782 1.3472323-7.608042 3.7138906c-4.07426 2.366658-8.7264842 5.741007-10.983092 9.968018-2.2674325 4.247286-1.9375854 9.604056-1.0966547 13.897804 0.8409312 4.293748 2.231125 7.565587 2.231125 7.565587l0.2812542 0.66377 0.6145057-0.399641s3.5232715-2.291702 7.5867705-5.599546c4.063497-3.307843 8.682508-7.613459 10.921641-11.807735 4.499918-8.429105-1.205376-17.751798-1.205376-17.751798z" style="fill-rule:evenodd;fill:#32b632"/>
 <path d="m23.477823 5.3044636-10.727851 18.949685" style="fill:none;opacity:.2;stroke-linecap:round;stroke-linejoin:round;stroke-width:2;stroke:url(#linearGradient4532)"/>
 <path d="m23.802734 4.0097656l-0.478515 0.1816406s-3.535115 1.3462324-7.609375 3.7128907c-4.07426 2.3666581-8.7258146 5.7417391-10.982422 9.9687501-1.4196439 2.659234-1.8194621 5.752177-1.7148438 8.748047 0.012386-2.677194 0.4526316-5.38371 1.7148438-7.748047 2.2566075-4.227011 6.9081621-7.602092 10.982422-9.9687501 4.07426-2.3666583 7.609375-3.7128907 7.609375-3.7128907l0.478515-0.1816406 0.263672 0.4316406s2.683769 4.3889538 2.916016 9.8671878c0.08474-5.9317748-2.916016-10.867188-2.916016-10.867188l-0.263672-0.4316406z" style="fill-rule:evenodd;fill:#ffffff;opacity:.2"/>
</svg>

<svg xmlns="http://www.w3.org/2000/svg" xmlns:xlink="http://www.w3.org/1999/xlink" width="64" height="64" version="1.1" viewBox="0 0 64 64">
 <defs>
  <linearGradient id="linearGradient4532" x1="17" x2="10" y1="5" y2="18" gradientTransform="matrix(1.4999957,0,0,1.4996048,-1.4999872,-1.9889343)" gradientUnits="userSpaceOnUse" xlink:href="#linearGradient4530"/>
  <linearGradient id="linearGradient4530">
   <stop style="stop-color:#000000" offset="0"/>
   <stop style="stop-color:#000000;stop-opacity:0" offset="1"/>
  </linearGradient>
 </defs>
 <g transform="matrix(-1,0,0,1,66,0)">
  <path style="opacity:0.2" d="M 57.95384,39.800066 A 13.999957,13.999957 0 0 1 43.999883,53.000025 13.999957,13.999957 0 0 1 30.046726,40.082065 13.999957,13.999957 0 0 0 29.999846,41.000062 13.999957,13.999957 0 0 0 43.999803,55.000019 13.999957,13.999957 0 0 0 57.999759,41.000062 13.999957,13.999957 0 0 0 57.95288,39.918066 Z"/>
  <path style="opacity:0.2" d="M 33.953914,45.800047 A 13.999957,13.999957 0 0 1 19.999957,59.000007 13.999957,13.999957 0 0 1 6.0468005,46.000047 13.999957,13.999957 0 0 0 6.0000006,47.000044 13.999957,13.999957 0 0 0 19.999957,61 13.999957,13.999957 0 0 0 33.999914,47.000044 13.999957,13.999957 0 0 0 33.953034,45.918047 Z"/>
  <path style="fill:none;stroke:#1f711f;stroke-width:5.9999814;stroke-linecap:round;stroke-linejoin:round" d="m 42.999886,39.000053 c 0,0 -5.527983,-8.944773 -5.999981,-13.999957 -0.571479,-6.119781 3.999987,-17.9999442 3.999987,-17.9999442"/>
  <path style="opacity:0.2;fill-rule:evenodd" d="m 43.859883,6.7999032 a 3.0003907,3.0003907 0 0 1 -1.265616,1.5585952 c 0,0 -3.01639,1.8915946 -6.45698,4.5273856 -3.440589,2.635592 -7.267377,6.188181 -8.527373,8.409974 -1.350456,2.380993 -2.484993,7.760576 -3.007791,12.296962 -0.523998,4.599986 -0.601998,8.399974 -0.601998,8.399974 a 3.0005907,3.0005907 0 0 1 -5.941382,0.519599 c -0.0182,0.399998 -0.0586,1.199996 -0.0586,1.199996 a 3.0006111,3.0006111 0 1 0 5.999982,0.122 c 0,0 0.07884,-3.748789 0.601558,-8.285175 0.522718,-4.536386 1.657335,-9.915769 3.007791,-12.296762 1.259996,-2.221793 5.086784,-5.774582 8.527373,-8.410174 3.44059,-2.635791 6.45698,-4.527386 6.45698,-4.527386 a 3.0003907,3.0003907 0 0 0 1.265616,-3.5623886 z"/>
  <path style="fill:none;stroke:#248424;stroke-width:6;stroke-linecap:round;stroke-linejoin:round" d="m 20.999954,43.00004 c 0,0 0.322959,-15.516552 3.999988,-21.999932 3.495989,-6.16438 15.99995,-13.9999562 15.99995,-13.9999562"/>
  <path style="opacity:0.1;fill:#ffffff;fill-rule:evenodd" d="M 41.025391,3.9492188 41.023438,4 A 3.0003907,3.0003907 0 0 0 39.40625,4.4804688 c 0,0 -3.23258,2.024465 -6.917969,4.8476562 -3.685388,2.823191 -7.861663,6.272256 -10.097656,10.214844 -2.326593,4.102387 -3.192001,9.723821 -3.75,14.566406 -0.557398,4.799985 -0.638672,8.800781 -0.638672,8.800781 a 3.0005907,3.0005907 0 0 0 0.02539,0.408203 c 0.02115,-0.76975 0.119283,-3.954963 0.613281,-8.208984 0.557999,-4.842585 1.423407,-10.464019 3.75,-14.566406 2.235993,-3.942588 6.412268,-7.391653 10.097656,-10.214844 3.68539,-2.8231916 6.91797,-4.8476562 6.91797,-4.8476562 A 3.0003907,3.0003907 0 0 1 41.023438,5 l 0.002,-0.050781 A 3.0003907,3.0003907 0 0 1 43.990281,7.4453127 3.0003907,3.0003907 0 0 0 41.025438,3.949219 Z"/>
  <circle style="fill:#c72828" cx="44" cy="40" r="14"/>
  <path style="opacity:0.2;fill:#ffffff" d="M 44,26 A 13.999957,13.999957 0 0 0 30,40 13.999957,13.999957 0 0 0 30.019531,40.451172 13.999957,13.999957 0 0 1 44,27 13.999957,13.999957 0 0 1 57.974609,40.496094 13.999957,13.999957 0 0 0 58,40 13.999957,13.999957 0 0 0 44,26 Z"/>
  <circle style="fill:#ff3737" cx="20" cy="46" r="14"/>
  <path style="opacity:0.2;fill:#ffffff" d="M 20,32 A 13.999957,13.999957 0 0 0 6,46 13.999957,13.999957 0 0 0 6.0195312,46.451172 13.999957,13.999957 0 0 1 20,33 13.999957,13.999957 0 0 1 33.974609,46.496094 13.999957,13.999957 0 0 0 34,46 13.999957,13.999957 0 0 0 20,32 Z"/>
 </g>
 <path style="opacity:0.2;fill-rule:evenodd" d="m 23.803143,5.0094849 -0.479789,0.1814455 c 0,0 -3.533782,1.3472323 -7.608042,3.7138906 -4.07426,2.366658 -8.7264842,5.741007 -10.9830917,9.968018 -2.2674325,4.247286 -1.9375854,9.604056 -1.0966547,13.897804 0.8409312,4.293748 2.231125,7.565587 2.231125,7.565587 L 6.1479448,41 6.7624505,40.600359 c 0,0 3.5232715,-2.291702 7.5867705,-5.599546 C 18.412718,31.69297 23.031729,27.387354 25.270862,23.193078 29.77078,14.763973 24.065486,5.44128 24.065486,5.44128 Z"/>
 <path style="fill:#32b632;fill-rule:evenodd" d="m 23.803143,4.0094849 -0.479789,0.1814455 c 0,0 -3.533782,1.3472323 -7.608042,3.7138906 -4.07426,2.366658 -8.7264842,5.741007 -10.9830917,9.968018 -2.2674325,4.247286 -1.9375854,9.604056 -1.0966547,13.897804 0.8409312,4.293748 2.231125,7.565587 2.231125,7.565587 L 6.1479448,40 6.7624505,39.600359 c 0,0 3.5232715,-2.291702 7.5867705,-5.599546 C 18.412718,30.69297 23.031729,26.387354 25.270862,22.193078 29.77078,13.763973 24.065486,4.44128 24.065486,4.44128 Z"/>
 <path style="opacity:0.2;fill:none;stroke:url(#linearGradient4532);stroke-width:2;stroke-linecap:round;stroke-linejoin:round" d="M 23.477823,5.3044636 12.749972,24.254149"/>
 <path style="fill:#ffffff;fill-rule:evenodd;opacity:0.2" d="M 23.802734 4.0097656 L 23.324219 4.1914062 C 23.324219 4.1914062 19.789104 5.5376386 15.714844 7.9042969 C 11.640584 10.270955 6.9890294 13.646036 4.7324219 17.873047 C 3.312778 20.532281 2.9129598 23.625224 3.0175781 26.621094 C 3.0299641 23.9439 3.4702097 21.237384 4.7324219 18.873047 C 6.9890294 14.646036 11.640584 11.270955 15.714844 8.9042969 C 19.789104 6.5376386 23.324219 5.1914062 23.324219 5.1914062 L 23.802734 5.0097656 L 24.066406 5.4414062 C 24.066406 5.4414062 26.750175 9.83036 26.982422 15.308594 C 27.067162 9.3768192 24.066406 4.4414062 24.066406 4.4414062 L 23.802734 4.0097656 z"/>
</svg>
